ds42/src/images/icons/360.svg

<?xml version="1.0" encoding="UTF-8"?>
<svg width="25px" height="11px" viewBox="0 0 25 11" version="1.1" xmlns="http://www.w3.org/2000/svg" xmlns:xlink="http://www.w3.org/1999/xlink">
    <!-- Generator: Sketch 62 (91390) - https://sketch.com -->
    <title>360</title>
    <desc>Created with Sketch.</desc>
    <defs>
        <polygon id="path-1" points="3.38813179e-20 0.158916667 3.38813179e-20 9.16666667 12.4999583 9.16666667 12.4999583 0.158916667"></polygon>
    </defs>
    <g id="Page-1" stroke="none" stroke-width="1" fill="none" fill-rule="evenodd">
        <g id="Artboard" transform="translate(-25.000000, -27.000000)">
            <g id="360" transform="translate(25.000000, 27.000000)">
                <g id="-Black">
                    <g id="360-Black">
                        <path d="M7.494,4.64616667 C7.38233333,4.722 7.2465,4.77116667 7.08483333,4.79366667 C6.92316667,4.81616667 6.774,4.827 6.6365,4.827 C6.4015,4.827 6.14316667,4.78283333 5.85983333,4.692 C5.5765,4.602 5.33233333,4.49533333 5.129,4.372 L4.98983333,4.372 L4.98983333,5.53533333 C5.1865,5.62033333 5.44233333,5.69783333 5.7565,5.76616667 C6.07066667,5.83533333 6.44733333,5.8695 6.88566667,5.8695 C7.26983333,5.8695 7.5965,5.8295 7.86566667,5.75033333 C8.13483333,5.67116667 8.369,5.55616667 8.56816667,5.407 C8.77233333,5.25366667 8.92316667,5.06783333 9.0215,4.85283333 C9.11983333,4.63616667 9.169,4.40366667 9.169,4.15533333 C9.169,3.9345 9.13483333,3.75783333 9.0665,3.62533333 C8.99733333,3.492 8.90483333,3.37616667 8.789,3.27616667 C8.67733333,3.182 8.554,3.1095 8.419,3.0595 C8.284,3.0095 8.15566667,2.977 8.03483333,2.96033333 L8.03483333,2.91033333 C8.33316667,2.84616667 8.574,2.69866667 8.7565,2.467 C8.939,2.23616667 9.03066667,1.97366667 9.03066667,1.6795 C9.03066667,1.45616667 8.98316667,1.262 8.88816667,1.09616667 C8.794,0.930333333 8.649,0.7895 8.454,0.672833333 C8.29066667,0.575333333 8.08316667,0.497833333 7.83233333,0.440333333 C7.58066667,0.382 7.28733333,0.352833333 6.95316667,0.352833333 C6.609,0.352833333 6.27066667,0.388666667 5.93566667,0.461166667 C5.6015,0.533666667 5.33733333,0.608666667 5.14316667,0.687 L5.14316667,1.83616667 L5.274,1.83616667 C5.51816667,1.69116667 5.7715,1.58033333 6.03233333,1.50366667 C6.29316667,1.42616667 6.53483333,1.38783333 6.75816667,1.38783333 C6.84816667,1.38783333 6.95566667,1.39533333 7.0815,1.4095 C7.20733333,1.42366667 7.3165,1.452 7.40816667,1.4945 C7.4915,1.53283333 7.56066667,1.58366667 7.61483333,1.6495 C7.669,1.7145 7.6965,1.80033333 7.6965,1.907 C7.6965,2.052 7.67066667,2.16116667 7.61816667,2.23616667 C7.5665,2.31116667 7.48816667,2.37116667 7.384,2.41616667 C7.284,2.45866667 7.16316667,2.48533333 7.02066667,2.49783333 C6.879,2.5095 6.71483333,2.51533333 6.52983333,2.51533333 L6.22733333,2.51533333 L6.22733333,3.462 L6.51983333,3.462 C6.65983333,3.462 6.8115,3.46366667 6.97483333,3.467 C7.13816667,3.47033333 7.27816667,3.49116667 7.394,3.5295 C7.51066667,3.5645 7.604,3.6245 7.67566667,3.70866667 C7.7465,3.79283333 7.78233333,3.912 7.78233333,4.06616667 C7.78233333,4.22533333 7.75566667,4.347 7.704,4.43116667 C7.6515,4.51533333 7.5815,4.587 7.494,4.64616667" id="Fill-1" fill="#2C2C2C"></path>
                        <path d="M11.2183333,3.39733333 C11.2208333,3.34316667 11.2216667,3.304 11.2216667,3.27983333 C11.3166667,3.244 11.4208333,3.21483333 11.535,3.19066667 C11.6491667,3.16733333 11.7575,3.15566667 11.8616667,3.15566667 C11.985,3.15566667 12.105,3.16816667 12.2216667,3.19316667 C12.3375,3.21816667 12.4383333,3.26316667 12.5233333,3.32983333 C12.6116667,3.3965 12.68,3.484 12.73,3.59483333 C12.78,3.70483333 12.805,3.84733333 12.805,4.01983333 C12.805,4.20983333 12.7825,4.35983333 12.7391667,4.46983333 C12.695,4.57983333 12.6366667,4.67566667 12.5625,4.7565 C12.4966667,4.82733333 12.4158333,4.88066667 12.3208333,4.9165 C12.2258333,4.9515 12.1391667,4.96983333 12.0616667,4.96983333 C11.9566667,4.96983333 11.86,4.95233333 11.77,4.91816667 C11.6791667,4.884 11.6008333,4.82983333 11.535,4.7565 C11.4375,4.6565 11.36,4.51233333 11.3016667,4.324 C11.2433333,4.13566667 11.215,3.89566667 11.215,3.604 C11.215,3.52066667 11.2158333,3.4515 11.2183333,3.39733333 M10.5141667,5.34316667 C10.7008333,5.52066667 10.9258333,5.65316667 11.1883333,5.73983333 C11.45,5.8265 11.74,5.86983333 12.0575,5.86983333 C12.3966667,5.86983333 12.6925,5.82316667 12.945,5.73066667 C13.1975,5.63816667 13.42,5.504 13.6125,5.329 C13.7925,5.16566667 13.9325,4.964 14.0316667,4.724 C14.1316667,4.48483333 14.1816667,4.229 14.1816667,3.95566667 C14.1816667,3.60733333 14.1216667,3.3165 14.0033333,3.08483333 C13.885,2.85233333 13.7275,2.66733333 13.53,2.529 C13.3783333,2.42483333 13.2141667,2.349 13.0375,2.30233333 C12.8608333,2.254 12.67,2.23066667 12.4633333,2.23066667 C12.2283333,2.23066667 12.01,2.26483333 11.8075,2.33233333 C11.6041667,2.39983333 11.4116667,2.48816667 11.2291667,2.59733333 C11.2808333,2.199 11.4341667,1.88816667 11.6875,1.66483333 C11.9416667,1.44233333 12.2958333,1.33066667 12.7516667,1.33066667 C12.9458333,1.33066667 13.1191667,1.34983333 13.2725,1.38983333 C13.425,1.429 13.5341667,1.464 13.5975,1.494 L13.7333333,1.494 L13.7333333,0.452333333 C13.6716667,0.440666667 13.5375,0.422333333 13.3308333,0.399 C13.125,0.375666667 12.935,0.363166667 12.7625,0.363166667 C12.25,0.363166667 11.8083333,0.4365 11.4366667,0.584 C11.0658333,0.730666667 10.7641667,0.937333333 10.5316667,1.20316667 C10.29,1.48066667 10.1158333,1.799 10.0091667,2.15983333 C9.90166667,2.51983333 9.84833333,2.93233333 9.84833333,3.39733333 C9.84833333,3.84566667 9.90583333,4.23066667 10.02,4.55316667 C10.1333333,4.87566667 10.2983333,5.139 10.5141667,5.34316667" id="Fill-3" fill="#2C2C2C"></path>
                        <path d="M16.4344167,1.73841667 C16.56025,1.46675 16.7685833,1.33091667 17.06025,1.33091667 C17.35275,1.33091667 17.5610833,1.46675 17.6860833,1.73841667 C17.8119167,2.01008333 17.87525,2.46675 17.87525,3.10758333 C17.87525,3.74091667 17.8110833,4.19675 17.6835833,4.47508333 C17.55525,4.75258333 17.34775,4.89175 17.06025,4.89175 C16.7735833,4.89175 16.5660833,4.75258333 16.43775,4.47508333 C16.31025,4.19675 16.2460833,3.74341667 16.2460833,3.11425 C16.2460833,2.46925 16.3085833,2.01008333 16.4344167,1.73841667 M15.36775,5.16508333 C15.54025,5.39758333 15.7669167,5.57341667 16.0469167,5.69175 C16.3269167,5.81008333 16.6644167,5.87008333 17.06025,5.87008333 C17.4635833,5.87008333 17.80275,5.81091667 18.07775,5.69341667 C18.35275,5.57591667 18.5785833,5.40175 18.7535833,5.17175 C18.9244167,4.94675 19.05025,4.65758333 19.13025,4.30508333 C19.2119167,3.95258333 19.2519167,3.55341667 19.2519167,3.10758333 C19.2519167,2.66175 19.21275,2.26841667 19.1344167,1.92758333 C19.0560833,1.58675 18.93025,1.30091667 18.75775,1.06841667 C18.5819167,0.830916667 18.3569167,0.652583333 18.0819167,0.532583333 C17.8060833,0.412583333 17.4660833,0.352583333 17.06025,0.352583333 C16.6719167,0.352583333 16.3369167,0.410916667 16.05775,0.52675 C15.77775,0.643416667 15.5494167,0.817583333 15.3744167,1.05008333 C15.1994167,1.28508333 15.0710833,1.57258333 14.99025,1.91175 C14.9094167,2.25091667 14.8694167,2.65091667 14.8694167,3.11091667 C14.8694167,3.55758333 14.9085833,3.95258333 14.9869167,4.29841667 C15.06525,4.64341667 15.1919167,4.93258333 15.36775,5.16508333" id="Fill-5" fill="#2C2C2C"></path>
                        <path d="M20.4195833,0.361083333 C20.7129167,0.361083333 20.9504167,0.599416667 20.9504167,0.89275 C20.9504167,1.18608333 20.7129167,1.42358333 20.4195833,1.42358333 C20.12625,1.42358333 19.88875,1.18608333 19.88875,0.89275 C19.88875,0.599416667 20.12625,0.361083333 20.4195833,0.361083333 M20.4195833,1.78441667 C20.9120833,1.78441667 21.3120833,1.38525 21.3120833,0.89275 C21.3120833,0.399416667 20.9120833,0.00025 20.4195833,0.00025 C19.9270833,0.00025 19.5270833,0.399416667 19.5270833,0.89275 C19.5270833,1.38525 19.9270833,1.78441667 20.4195833,1.78441667" id="Fill-7" fill="#2C2C2C"></path>
                        <g id="Group-11" transform="translate(0.000000, 1.350750)">
                            <mask id="mask-2" fill="white">
                                <use xlink:href="#path-1"></use>
                            </mask>
                            <g id="Clip-10"></g>
                            <path d="M12.4805833,7.24391667 L10.6714167,5.43475 C10.6539167,5.41725 10.6289167,5.41225 10.60725,5.41808333 L10.60725,6.40391667 C5.39808333,6.11475 1.43641667,4.65058333 1.43641667,2.88725 C1.43641667,1.84058333 2.83391667,0.898916667 5.06058333,0.246416667 C5.05225,0.218083333 5.05058333,0.18725 5.05558333,0.158916667 C1.98808333,0.958083333 -0.00025,2.23975 -0.00025,3.68475 C-0.00025,5.88308333 4.60141667,7.70391667 10.60725,8.02475 L10.60725,9.16475 C10.6289167,9.17058333 10.6539167,9.16475 10.6714167,9.14725 L12.4805833,7.33808333 C12.5064167,7.31225 12.5064167,7.26975 12.4805833,7.24391667" id="Fill-9" fill="#2C2C2C" mask="url(#mask-2)"></path>
                        </g>
                        <g id="Group-14" transform="translate(11.666667, 1.350750)" fill="#2C2C2C">
                            <path d="M13.3334167,3.68475 C13.3334167,2.38641667 11.7284167,1.22058333 9.17841667,0.41725 C9.14175,0.45475 9.09258333,0.48225 9.03091667,0.49225 C10.8109167,1.12558333 11.8975833,1.96558333 11.8975833,2.88725 C11.8975833,4.72225 7.60508333,6.23308333 2.08341667,6.43308333 L0.53925,6.44308333 L1.35508333,7.22641667 L0.53925,8.07475 L2.36758333,8.04225 L2.36675,8.04058333 C8.54675,7.77475 13.3334167,5.92641667 13.3334167,3.68475" id="Fill-12"></path>
                        </g>
                    </g>
                </g>
            </g>
        </g>
    </g>
</svg>

<svg width="25" height="11" xmlns="http://www.w3.org/2000/svg" xmlns:xlink="http://www.w3.org/1999/xlink">
  <defs>
    <path id="a" d="M0 .159v9.008h12.5V.159z"/>
  </defs>
  <g fill="none" fill-rule="evenodd">
    <path d="M7.494 4.646a.95.95 0 01-.41.148c-.16.022-.31.033-.447.033-.235 0-.494-.044-.777-.135a3.39 3.39 0 01-.731-.32h-.14v1.163c.197.085.453.163.768.231.314.07.69.104 1.129.104.384 0 .71-.04.98-.12.269-.079.503-.194.702-.343.204-.153.355-.34.454-.554.098-.217.147-.45.147-.698 0-.22-.034-.397-.103-.53a1.168 1.168 0 00-.277-.349 1.237 1.237 0 00-.37-.216 1.828 1.828 0 00-.384-.1v-.05c.298-.064.539-.211.722-.443.182-.23.274-.493.274-.788 0-.223-.048-.417-.143-.583a1.178 1.178 0 00-.434-.423A2.156 2.156 0 007.832.44a3.925 3.925 0 00-.879-.087A4.79 4.79 0 005.936.46a5.08 5.08 0 00-.793.226v1.15h.131c.244-.146.497-.257.758-.333.261-.078.503-.116.726-.116.09 0 .198.007.324.022.125.014.234.042.326.085a.57.57 0 01.207.154.39.39 0 01.082.258c0 .145-.026.254-.079.33a.53.53 0 01-.234.18 1.2 1.2 0 01-.363.08 6.066 6.066 0 01-.491.018h-.303v.947h.293c.14 0 .292.002.455.005.163.003.303.024.419.063.117.034.21.095.282.179a.54.54 0 01.106.357c0 .16-.026.281-.078.365a.716.716 0 01-.21.215M11.218 3.397c.003-.054.004-.093.004-.117.095-.036.199-.065.313-.09a1.628 1.628 0 01.687.003.73.73 0 01.301.137.666.666 0 01.207.265c.05.11.075.252.075.425 0 .19-.022.34-.066.45a.933.933 0 01-.177.287.627.627 0 01-.241.16.761.761 0 01-.551.001.593.593 0 01-.235-.162 1.06 1.06 0 01-.233-.432 2.484 2.484 0 01-.087-.72c0-.083 0-.153.003-.207m-.704 1.946c.187.178.412.31.674.397.262.087.552.13.87.13.339 0 .635-.047.887-.14a2.01 2.01 0 00.668-.401c.18-.163.32-.365.419-.605.1-.24.15-.495.15-.768 0-.349-.06-.64-.179-.871a1.486 1.486 0 00-.966-.783 2.167 2.167 0 00-.574-.071 2.06 2.06 0 00-.655.101 2.906 2.906 0 00-.579.265c.052-.398.205-.709.459-.932.254-.223.608-.334 1.064-.334.194 0 .367.019.52.059.153.039.262.074.325.104h.136V.452A6.818 6.818 0 0013.331.4a5.095 5.095 0 00-.569-.036c-.512 0-.954.074-1.325.221-.371.147-.673.353-.905.62a2.53 2.53 0 00-.523.956 4.33 4.33 0 00-.16 1.237c0 .449.057.834.171 1.156.113.323.278.586.494.79M16.434 1.738c.126-.271.335-.407.626-.407.293 0 .501.136.626.407.126.272.19.729.19 1.37 0 .633-.065 1.089-.192 1.367-.129.278-.336.417-.624.417-.286 0-.494-.14-.622-.417-.128-.278-.192-.732-.192-1.36 0-.646.063-1.105.188-1.377m-1.066 3.427c.172.233.399.408.679.527.28.118.617.178 1.013.178.404 0 .743-.06 1.018-.177.275-.117.5-.291.676-.521.17-.225.296-.514.376-.867.082-.352.122-.752.122-1.197 0-.446-.04-.84-.118-1.18a2.28 2.28 0 00-.376-.86 1.642 1.642 0 00-.676-.535c-.276-.12-.616-.18-1.022-.18-.388 0-.723.058-1.002.174-.28.116-.509.29-.684.523a2.33 2.33 0 00-.384.862c-.08.339-.12.739-.12 1.199 0 .447.039.842.117 1.187.078.345.205.635.38.867M20.42.361a.531.531 0 11-.001 1.063.531.531 0 010-1.063m0 1.423a.892.892 0 100-1.784.892.892 0 000 1.784" fill="#2C2C2C"/>
    <g transform="translate(0 1.35)">
      <mask id="b" fill="#fff">
        <use xlink:href="#a"/>
      </mask>
      <path d="M12.48 7.244l-1.809-1.81a.066.066 0 00-.064-.016v.986c-5.209-.29-9.17-1.753-9.17-3.517C1.436 1.841 2.833.9 5.06.247a.195.195 0 01-.005-.088C1.988.959 0 2.239 0 3.685 0 5.883 4.6 7.704 10.607 8.025v1.14c.022.006.047 0 .064-.018l1.81-1.809a.067.067 0 000-.094" fill="#2C2C2C" mask="url(#b)"/>
    </g>
    <path d="M25 5.035c0-1.298-1.605-2.464-4.155-3.267a.26.26 0 01-.147.075c1.78.633 2.866 1.473 2.866 2.395 0 1.835-4.292 3.346-9.814 3.546l-1.544.01.816.783-.816.849 1.828-.033v-.002C20.213 9.125 25 7.277 25 5.035" fill="#2C2C2C"/>
  </g>
</svg>
